X: 33
T: JIG: Cliffs of Moher
C: C: Trad.; S: Various
C: Set Leaders: André, Sophie, Anton
Z: Anton Zille ed.; NfldWhistler at The Session
N: https://thesession.org/members/26966/sets/96712
R: Jig
M: 6/8
L: 1/8
Q: 3/8=116
K: Ador
|:a3 bag|eaf ged|c2A BAG|EFG ABd|
eaa bag|eaf ged|c2A BAG|1 EFG A3:|2 EFG ABd||
|:e2e dBA|e/f/ge dBA|G2B dBA|GAB dBd|
[1 e3 dBA|e/f/ge dBA|GAB dBG|EFG ABd:|
[2 e2e dee|cee Bee|EFG BAG|EDB, A,3||

